static/img/kroki/d1e836d99a15902a47267d09024a5950.svg

<?xml version="1.0" encoding="us-ascii" standalone="no"?><svg xmlns="http://www.w3.org/2000/svg" xmlns:xlink="http://www.w3.org/1999/xlink" contentStyleType="text/css" height="374px" preserveAspectRatio="none" style="width:377px;height:374px;" version="1.1" viewBox="0 0 377 374" width="377px" zoomAndPan="magnify"><defs/><g><!--class digitalocean_resource--><g id="elem_digitalocean_resource"><rect codeLine="23" fill="#3D176E" height="39.7891" id="digitalocean_resource" rx="2.5" ry="2.5" style="stroke:#000D19;stroke-width:0.5;" width="223" x="7" y="167.79"/><ellipse cx="22" cy="187.6845" fill="#ADD1B2" rx="11" ry="11" style="stroke:#181818;stroke-width:1.0;"/><path d="M24.9688,193.3252 Q24.3906,193.622 23.75,193.7627 Q23.1094,193.9189 22.4063,193.9189 Q19.9063,193.9189 18.5781,192.2783 Q17.2656,190.622 17.2656,187.497 Q17.2656,184.372 18.5781,182.7158 Q19.9063,181.0595 22.4063,181.0595 Q23.1094,181.0595 23.75,181.2158 Q24.4063,181.372 24.9688,181.6689 L24.9688,184.3877 Q24.3438,183.8095 23.75,183.5439 Q23.1563,183.2627 22.5313,183.2627 Q21.1875,183.2627 20.5,184.3408 Q19.8125,185.4033 19.8125,187.497 Q19.8125,189.5908 20.5,190.6689 Q21.1875,191.7314 22.5313,191.7314 Q23.1563,191.7314 23.75,191.4658 Q24.3438,191.1845 24.9688,190.6064 L24.9688,193.3252 Z " fill="#000000"/><text fill="#D9B8FF" font-family="Helvetica" font-size="17" lengthAdjust="spacing" textLength="181" x="41" y="193.5698">digitalocean_resource</text></g><!--class digitalocean_volume--><g id="elem_digitalocean_volume"><rect codeLine="26" fill="#3D176E" height="39.7891" id="digitalocean_volume" rx="2.5" ry="2.5" style="stroke:#000D19;stroke-width:0.5;" width="215" x="110" y="328.58"/><ellipse cx="125" cy="348.4745" fill="#ADD1B2" rx="11" ry="11" style="stroke:#181818;stroke-width:1.0;"/><path d="M127.9688,354.1152 Q127.3906,354.412 126.75,354.5527 Q126.1094,354.7089 125.4063,354.7089 Q122.9063,354.7089 121.5781,353.0683 Q120.2656,351.412 120.2656,348.287 Q120.2656,345.162 121.5781,343.5058 Q122.9063,341.8495 125.4063,341.8495 Q126.1094,341.8495 126.75,342.0058 Q127.4063,342.162 127.9688,342.4589 L127.9688,345.1777 Q127.3438,344.5995 126.75,344.3339 Q126.1563,344.0527 125.5313,344.0527 Q124.1875,344.0527 123.5,345.1308 Q122.8125,346.1933 122.8125,348.287 Q122.8125,350.3808 123.5,351.4589 Q124.1875,352.5214 125.5313,352.5214 Q126.1563,352.5214 126.75,352.2558 Q127.3438,351.9745 127.9688,351.3964 L127.9688,354.1152 Z " fill="#000000"/><text fill="#D9B8FF" font-family="Helvetica" font-size="17" lengthAdjust="spacing" textLength="173" x="144" y="354.3598">digitalocean_volume</text></g><!--class resource--><g id="elem_resource"><rect codeLine="29" fill="#3D176E" height="39.7891" id="resource" rx="2.5" ry="2.5" style="stroke:#000D19;stroke-width:0.5;" width="113" x="161" y="7"/><ellipse cx="176" cy="26.8945" fill="#ADD1B2" rx="11" ry="11" style="stroke:#181818;stroke-width:1.0;"/><path d="M178.9688,32.5352 Q178.3906,32.832 177.75,32.9727 Q177.1094,33.1289 176.4063,33.1289 Q173.9063,33.1289 172.5781,31.4883 Q171.2656,29.832 171.2656,26.707 Q171.2656,23.582 172.5781,21.9258 Q173.9063,20.2695 176.4063,20.2695 Q177.1094,20.2695 177.75,20.4258 Q178.4063,20.582 178.9688,20.8789 L178.9688,23.5977 Q178.3438,23.0195 177.75,22.7539 Q177.1563,22.4727 176.5313,22.4727 Q175.1875,22.4727 174.5,23.5508 Q173.8125,24.6133 173.8125,26.707 Q173.8125,28.8008 174.5,29.8789 Q175.1875,30.9414 176.5313,30.9414 Q177.1563,30.9414 177.75,30.6758 Q178.3438,30.3945 178.9688,29.8164 L178.9688,32.5352 Z " fill="#000000"/><text fill="#D9B8FF" font-family="Helvetica" font-size="17" lengthAdjust="spacing" textLength="71" x="195" y="32.7798">resource</text></g><!--class volume--><g id="elem_volume"><rect codeLine="32" fill="#3D176E" height="39.7891" id="volume" rx="2.5" ry="2.5" style="stroke:#000D19;stroke-width:0.5;" width="105" x="265" y="167.79"/><ellipse cx="280" cy="187.6845" fill="#ADD1B2" rx="11" ry="11" style="stroke:#181818;stroke-width:1.0;"/><path d="M282.9688,193.3252 Q282.3906,193.622 281.75,193.7627 Q281.1094,193.9189 280.4063,193.9189 Q277.9063,193.9189 276.5781,192.2783 Q275.2656,190.622 275.2656,187.497 Q275.2656,184.372 276.5781,182.7158 Q277.9063,181.0595 280.4063,181.0595 Q281.1094,181.0595 281.75,181.2158 Q282.4063,181.372 282.9688,181.6689 L282.9688,184.3877 Q282.3438,183.8095 281.75,183.5439 Q281.1563,183.2627 280.5313,183.2627 Q279.1875,183.2627 278.5,184.3408 Q277.8125,185.4033 277.8125,187.497 Q277.8125,189.5908 278.5,190.6689 Q279.1875,191.7314 280.5313,191.7314 Q281.1563,191.7314 281.75,191.4658 Q282.3438,191.1845 282.9688,190.6064 L282.9688,193.3252 Z " fill="#000000"/><text fill="#D9B8FF" font-family="Helvetica" font-size="17" lengthAdjust="spacing" textLength="63" x="299" y="193.5698">volume</text></g><!--reverse link resource to digitalocean_resource--><g id="link_resource_digitalocean_resource"><path codeLine="35" d="M196.0362,62.3241 C177.0062,92.8441 149.54,136.9 130.48,167.46 " fill="none" id="resource-backto-digitalocean_resource" style="stroke:#FFAF37;stroke-width:2.0;"/><polygon fill="none" points="205.56,47.05,190.9449,59.1495,201.1276,65.4987,205.56,47.05" style="stroke:#FFAF37;stroke-width:2.0;"/></g><!--reverse link digitalocean_resource to digitalocean_volume--><g id="link_digitalocean_resource_digitalocean_volume"><path codeLine="36" d="M139.9638,223.1141 C158.9938,253.6341 186.46,297.69 205.52,328.25 " fill="none" id="digitalocean_resource-backto-digitalocean_volume" style="stroke:#FFAF37;stroke-width:2.0;"/><polygon fill="none" points="130.44,207.84,134.8724,226.2887,145.0551,219.9395,130.44,207.84" style="stroke:#FFAF37;stroke-width:2.0;"/></g><!--reverse link volume to digitalocean_volume--><g id="link_volume_digitalocean_volume"><path codeLine="37" d="M295.848,223.0714 C276.628,253.5914 248.85,297.69 229.61,328.25 " fill="none" id="volume-backto-digitalocean_volume" style="stroke:#FFAF37;stroke-width:2.0;"/><polygon fill="none" points="305.44,207.84,290.7709,219.874,300.9252,226.2687,305.44,207.84" style="stroke:#FFAF37;stroke-width:2.0;"/></g><!--reverse link resource to volume--><g id="link_resource_volume"><path codeLine="38" d="M239.152,62.2814 C258.372,92.8014 286.15,136.9 305.39,167.46 " fill="none" id="resource-backto-volume" style="stroke:#FFAF37;stroke-width:2.0;"/><polygon fill="none" points="229.56,47.05,234.0748,65.4787,244.2291,59.084,229.56,47.05" style="stroke:#FFAF37;stroke-width:2.0;"/></g><!--SRC=[XP1BRuCm48Jl_0fBEID1evOWzP8YLUqbgfhUgmMlWmNOQ6qIfO__tb9evF18hZlVpinkBZaoh6fxP1LMAPBnJ25L3GGLMnFfGw9BJMmX18XbD1GVjR9NWGrKo9wmtAEL6Go9jrncXK9Zs8qZFK1Mx4WtYdVsba2PNmcLTQYa16FMrf9C6ujE6HwdAo66vD1qiUHXT8SZJ1D7wf4W27WO3v6hKHVlFX5R-O4iT9-sqHP7DKSHVzJ5bYtXb1mT-g_FTdm1pgNQiLjdzjfr8eLqDj_cmFMXfGMKneqn5WcrFTQOZAx2UCL5D0a_py5UrhwESRcJ5agT8QXtGgCRof1zUjxt5B3NPLEToLChBdNIxxzytv-EywPBJ6nqpbuVC0yCFFhf3m00]--></g></svg>

<svg xmlns="http://www.w3.org/2000/svg" width="377" height="374" viewBox="0 0 377 374"><rect width="223" height="39.789" x="7" y="167.79" fill="#3D176E" rx="2.5" ry="2.5" style="stroke:#000d19;stroke-width:.5"/><circle cx="22" cy="187.685" r="11" fill="#ADD1B2" style="stroke:#181818;stroke-width:1"/><path d="M24.969 193.325q-.578.297-1.219.438-.64.156-1.344.156-2.5 0-3.828-1.64-1.312-1.657-1.312-4.782t1.312-4.781q1.328-1.656 3.828-1.656.703 0 1.344.156.656.156 1.219.453v2.719q-.625-.578-1.219-.844-.594-.281-1.219-.281-1.343 0-2.031 1.078-.687 1.062-.687 3.156t.687 3.172q.688 1.062 2.031 1.062.625 0 1.219-.265.594-.281 1.219-.86z"/><text x="41" y="193.57" fill="#D9B8FF" font-family="Helvetica" font-size="17" textLength="181">digitalocean_resource</text><rect width="215" height="39.789" x="110" y="328.58" fill="#3D176E" rx="2.5" ry="2.5" style="stroke:#000d19;stroke-width:.5"/><circle cx="125" cy="348.474" r="11" fill="#ADD1B2" style="stroke:#181818;stroke-width:1"/><path d="M127.969 354.115q-.578.297-1.219.438-.64.156-1.344.156-2.5 0-3.828-1.64-1.312-1.657-1.312-4.782t1.312-4.781q1.328-1.656 3.828-1.656.703 0 1.344.156.656.156 1.219.453v2.719q-.625-.579-1.219-.844-.594-.281-1.219-.281-1.344 0-2.031 1.078-.687 1.062-.687 3.156t.687 3.172q.688 1.062 2.031 1.062.625 0 1.219-.265.594-.281 1.219-.86z"/><text x="144" y="354.36" fill="#D9B8FF" font-family="Helvetica" font-size="17" textLength="173">digitalocean_volume</text><rect width="113" height="39.789" x="161" y="7" fill="#3D176E" rx="2.5" ry="2.5" style="stroke:#000d19;stroke-width:.5"/><circle cx="176" cy="26.895" r="11" fill="#ADD1B2" style="stroke:#181818;stroke-width:1"/><path d="M178.969 32.535q-.578.297-1.219.438-.64.156-1.344.156-2.5 0-3.828-1.64-1.312-1.657-1.312-4.782t1.312-4.781q1.328-1.656 3.828-1.656.703 0 1.344.156.656.156 1.219.453v2.719q-.625-.578-1.219-.844-.594-.281-1.219-.281-1.344 0-2.031 1.078-.687 1.062-.687 3.156t.687 3.172q.688 1.062 2.031 1.062.625 0 1.219-.265.594-.281 1.219-.86z"/><text x="195" y="32.78" fill="#D9B8FF" font-family="Helvetica" font-size="17" textLength="71">resource</text><rect width="105" height="39.789" x="265" y="167.79" fill="#3D176E" rx="2.5" ry="2.5" style="stroke:#000d19;stroke-width:.5"/><circle cx="280" cy="187.685" r="11" fill="#ADD1B2" style="stroke:#181818;stroke-width:1"/><path d="M282.969 193.325q-.578.297-1.219.438-.64.156-1.344.156-2.5 0-3.828-1.64-1.312-1.657-1.312-4.782t1.312-4.781q1.328-1.656 3.828-1.656.703 0 1.344.156.656.156 1.219.453v2.719q-.625-.578-1.219-.844-.594-.281-1.219-.281-1.344 0-2.031 1.078-.687 1.062-.687 3.156t.687 3.172q.688 1.062 2.031 1.062.625 0 1.219-.265.594-.281 1.219-.86z"/><text x="299" y="193.57" fill="#D9B8FF" font-family="Helvetica" font-size="17" textLength="63">volume</text><g fill="none"><path d="M196.036 62.324c-19.03 30.52-46.496 74.576-65.556 105.136" style="stroke:#ffaf37;stroke-width:2"/><path d="m205.56 47.05-14.615 12.1 10.183 6.349z" style="stroke:#ffaf37;stroke-width:2"/></g><path fill="none" d="M139.964 223.114c19.03 30.52 46.496 74.576 65.556 105.136m-75.08-120.41 4.432 18.449 10.183-6.35z" style="stroke:#ffaf37;stroke-width:2"/><g fill="none"><path d="M295.848 223.071c-19.22 30.52-46.998 74.619-66.238 105.179" style="stroke:#ffaf37;stroke-width:2"/><path d="m305.44 207.84-14.67 12.034 10.155 6.395z" style="stroke:#ffaf37;stroke-width:2"/></g><g fill="none"><path d="M239.152 62.281c19.22 30.52 46.998 74.619 66.238 105.179" style="stroke:#ffaf37;stroke-width:2"/><path d="m229.56 47.05 4.515 18.429 10.154-6.395z" style="stroke:#ffaf37;stroke-width:2"/></g></svg>
